X:1
T:James Gibb editions
T:Great God, who, hid from mortal sight - Barnby
%%score [ ( 1 2 ) ( 3 4 ) ]
L:1/8
Q:1/4=80
M:4/4
K:F
V:1 treble nm="Midi_74"
V:2 treble 
V:3 bass nm="Midi_74"
V:4 bass 
V:1
"^Litlington tower (L.M.)""^Charles Coffin (1676-1749)\ntr. H. W. Baker (1821-77)""^Great God, who, hid from mortal sight""^Joseph Barnby\n(1838-96)"!mf! F2 | %1
 A2 d2 c2 F2 | F2 G2 F2 || B2 | A2 G2 F2 c2 | c2 =B2 c2 ||[M:4/4] c2 | d2 c2 B2 A2 | B2 c2 A2 || %9
 B2 |!p!!<(! A2!<)!!>(! G2 F2!>)! F2 | F2 G2 F4 || B4 A4 |] %13
V:2
 C2 | C2 DE F2 A,B, | C2 E2 F2 || F2 | F2 E2- F2 FE | DA GF E2 ||[M:4/4] F2 | F2 F2 D2 D2 | %8
 D2 C2 C2 || B,2 | CD _E2 E2 D2 | CD E2 F4 || F4 F4 |] %13
V:3
 A,2 | F,2 F,G, A,2 A,G, | A,2 B,2 A,2 || B,2 | C2 C2 C2 C2 | D2 ED C2 || %6
[M:4/4]"^1. Great God, who, hid from mortal sight,\nDost dwell in unapproachèd light,\nBefore whose throne with veilèd brow,\nThy sinless angels trembling bow.\n\n2. A while in darkness here below\nWe lie oppressed with sin and woe;\nBut soon the everlasting day\nShall chase the night of gloom away.\n\n3. The day prepared for us by Thee;\nThe day reserved for us to see;\nA day but faintly imaged here\nBy brightest sun at noontide clear." C2 | %7
 B,2 A,2 G,2 ^F,2 | G,2 G,2 F,2 || F,2 | %10
 F,2"^4. Too long, alas! it still delays,\nIt lingers yet, that day of days;\nThe flesh, with all its load of sin,\nMust perish, ere its joy we win.\n\n5. Then from these earthy bonds set free\nThe soul shall fly, O God, to Thee;\nTo see Thee, love Thee, and adore,\nHer blissful task for evermore.\n\n6. All bounteous Trinity! prepare\nOur souls Thy hidden joy to share,\nThat our brief daytime, used aright,\nMay issue in eternal light." G,2 C3 B, | %11
 A,2 B,2 A,4 || D4 C4 |] %13
V:4
 F,2 | F,2 B,,2 A,,2 D,2 | C,2 C,2 D,2 || D,2 | C,2 B,2 A,2 A,G, | F,2 G,2 C,2 ||[M:4/4] A,2 | %7
 B,2 F,2 G,2 D,2 | G,!courtesy!=F, E,2 F,2 || D,2 | C,2 B,,2 A,,2 B,,2 | C,2 C,2 F,4 || B,,4 F,4 |] %13

